X:256
T:Short's Gardens. (p)1686.PLFD.256
M:6/4
L:1/4
Q:3/4=80
S:Playford, Dancing Master,7th Ed.,1686
O:England
H:1686.
Z:Chris Partington.
K:Bb
g|f>ed(ec)f|d2BB2d|c>BA(BG)c|A2FF2:|
|:c|c>BABcd|e>dcd=ef|g>ag=e>fg|af2-f2d|
eg2-g2f/e/|df2-f2=e/f/|g>fga>ga|b2bb2:|
